X: 39901
T: Thistle, The
R: jig
M: 6/8
K: Gmajor
|:"G"GDG BGB|dba g2e|d3 B2A|"Gsus2"AGE "D"E2D|
"G"GDG BGB|dba g2e|"Gsus4"dgd "C"edB|"D7"cAF "G"G3:|
|:"G"g2g Bcd|"Em6"G2G E2D|"G"g3 "Gsus4"Bcd|"C"e2d "D"def|
"G"g2g Bcd|"Em6"G2G "D"E2D|"G"GDG "C"BdB|"D7"cAF "G"G3:|

